X:1
T:You've Got to Talk My Language
M:4/4
L:1/4
K:C
 E F| G G G G| A G E F| G G F E| D2 D E| F F F E| D D C D| E4| z z/2 E/2 E F|\
 G/2 G3/2 G3/2 G/2| A G C C| F F F/2 c3/2| A/2 G3/2 C3/2 C/2| E G G3/2 G/2|\
 A/2 G3/2 D/2 B,3/2| C4| z z/2 C/2 E F| G G G G| A/2 G3/2 G/2F/2 E|\
 F F c c| A/2 G3/2 C C| E G G G| A G C C| F/2 E3/2 D C| D2 D/2E/2 F|\
 G E G E| D/2 C3/2 D E| F F c c| A/2 G3/2 z C| F3/2 F/2 F c| A G E C|\
 D D C B,| C2|
